images/reviews/Vector-left.svg

<svg width="10" height="14" viewBox="0 0 10 14" fill="none" xmlns="http://www.w3.org/2000/svg">
<path d="M1.11172 7.54628L7.3419 13.7763C7.48599 13.9206 7.67835 14 7.88345 14C8.08856 14 8.28091 13.9206 8.42501 13.7763L8.88382 13.3176C9.18237 13.0188 9.18237 12.533 8.88382 12.2345L3.65219 7.0029L8.88962 1.76547C9.03372 1.62126 9.11328 1.42901 9.11328 1.22402C9.11328 1.0188 9.03372 0.826562 8.88962 0.682239L8.43082 0.223657C8.2866 0.0794468 8.09436 0 7.88926 0C7.68415 0 7.4918 0.0794468 7.3477 0.223657L1.11172 6.45941C0.96728 6.60408 0.887948 6.79723 0.888403 7.00256C0.887948 7.20869 0.96728 7.40173 1.11172 7.54628Z" fill="#D64374"/>
</svg>

<svg width="10" height="14" fill="none" xmlns="http://www.w3.org/2000/svg"><path d="m1.112 7.546 6.23 6.23a.76.76 0 0 0 .541.224.76.76 0 0 0 .542-.224l.459-.458a.767.767 0 0 0 0-1.083L3.652 7.003 8.89 1.765a.76.76 0 0 0 .223-.541.761.761 0 0 0-.223-.542L8.43.224A.76.76 0 0 0 7.89 0a.76.76 0 0 0-.542.224L1.112 6.459a.761.761 0 0 0-.224.544c0 .206.08.399.224.543Z" fill="#D64374"/></svg>
